!!!COM: Haydn, Franz Joseph
!!!CDT: 1732/03/31/-1809/05/31/
!!!CNT: Austrian
!!!OTL: Sonata No. 15 in E major
!!!SCT: Hob. XVI:13
!!!OMV: Mvmt. 1
!!!OMD: Moderato
!!!ODT: 1760-1765///
!!!SMS: Universal Edition 1, Haydn Piano Sonatas, Vol. 3, No. 22
!!!ONB: Stich und Druck von Jos. Eberle & Co. Wien VII. Seidengasse 3-9
**kern	**kern	**dynam
*staff2	*staff1	*staff1/2
*Ipiano	*Ipiano	*Ipiano
*>[A,A,B,B]	*>[A,A,B,B]	*>[A,A,B,B]
*>norep[A,B]	*>norep[A,B]	*>norep[A,B]
*>A	*>A	*>A
*clefF4	*clefG2	*clefG2
*k[f#c#g#d#]	*k[f#c#g#d#]	*k[f#c#g#d#]
*E:	*E:	*E:
*M2/4	*M2/4	*M2/4
*MM100	*MM100	*MM100
=1-	=1-	=1-
4EE/ 4E/	8.e/ 8.g#/ 8.b/ 8.ee/L	f
.	(16e/Jk	p
*clefG2	*	*
8e/L	8g#/L	p
8f#/J	8a/J	.
=2	=2	=2
8.g#/L	8.b\L	.
16a/Jk	16cc#\Jk	.
&(8g#/L&)	8b/L)	.
8d#/J	(8a/J	.
=3	=3	=3
&(8e/&)	8g#/)	mf
*clefF4	*	*
8GG#'\ 8G#'\L	8B/ 8e/L	.
8AA'\ 8A'\	8c#'/ 8f#'/	.
8BB'\ 8F#'\J	8d#'/J	.
=4	=4	=4
4EE/ 4E/	(24e/LL	.
.	24f#/	.
.	24g#/J	.
.	8B''/J)	.
4r	32r	.
.	(32e/LLL	<
.	32f#/	.
.	32g#/	.
.	32a/	.
.	32b/	.
.	32cc#/	.
.	32dd#/JJJ	.
=5	=5	=5
8.E\ 8.G#\ 8.B\	8.ee\L)	f
*clefG2	*	*
16e/	(16g#\Jk	p
8f#/L	8a/L	.
8g#/J	8b/J	.
=6	=6	=6
8a/L	8.cc#\L	.
8A/J	.	.
.	16ee\Jk	.
8g#/L	8b/L	.
&(8e/J&)	8g#/J)	.
*clefF4	*	*
=7	=7	=7
(8D#\L	16r	.
.	(8a/L	mf
8B\	.	.
.	8f#/	.
8E\	.	.
.	8g#/	.
8B\J	.	.
.	16e/Jk)	.
=8	=8	=8
8D#\L	16r	.
.	8ff#\L	.
8B\	.	.
.	8a\	.
8E\	.	.
.	8g#\	.
8B\J	.	.
.	&(16b\Jk&)	.
=9	=9	=9
(8D#\L)	16r	.
.	8a/L	<
8B\	.	.
.	8f#/	.
8E\	.	.
.	8g#/	.
8B\J	.	.
.	&(16e/Jk&)	.
=10	=10	=10
8D#\L	16r	.
.	8ff#\L	.
8B\	.	.
.	8a\	.
8E\	.	.
.	8g#\	.
8G#\J	.	.
.	&(16ee\Jk&)	.
=11	=11	=11
4A\)	16r	.
.	24cc#/LL	f
.	24e#/	.
.	24f#/JJ	.
.	24cc#/LL	.
.	24b/	.
(8F#\L	.	.
.	24a/JJ	.
.	16g#/LL	.
8A#\J	16f#/	.
.	16en/JJ	.
=12	=12	=12
8B\L	24d#/LL	.
.	24e/	.
.	24f#/J	.
8BB\J)	&(8B''/J&)	mf
(16D#/LL	4r	.
16BB/	.	.
16F#/	.	.
16E/JJ	.	.
=13	=13	=13
*^	*	*
4r	2D#\)	16f#/LL	p
.	.	16b/	.
.	.	16b''/	.
.	.	16b''/JJ	.
16r	.	16b/LL	.
16B/LL	.	16a/	.
16B/	.	16g#/	.
16B/JJ	.	16f#/JJ	.
=14	=14	=14	=14
2B/	(8E\L	16g#/LL	.
.	.	16b/	.
.	8F#\	16d#/	.
.	.	16f#/JJ	.
.	8G#\	16e/LL	.
.	.	16g#/	.
.	8D#\J	16f#/	.
.	.	16a/JJ	.
=15	=15	=15	=15
2B/	8E\L)	16g#/LL	<
.	.	16b/	.
.	8F#\	16d#/	.
.	.	16f#/JJ	.
.	8G#\	16e/LL	.
.	.	16g#/	.
.	8D#\J	16f#/	.
.	.	16a/JJ	.
=16	=16	=16	=16
4r	4E\	16g#/LL	mf
.	.	16cc#/	.
.	.	16cc#/	.
.	.	16cc#''/JJ	.
16r	(4E#\	16cc#/LL	.
16c#/LL	.	16b/	.
16c#/	.	16a#/	.
16c#/JJ	.	16g#/JJ	.
=17	=17	=17	=17
2c#/	8F#\L	16a#/LL	.
.	.	16cc#/	.
.	8G#\	16e#/	.
.	.	16g#/JJ	.
.	8A#\	16f#/LL	.
.	.	16a#/	.
.	8E#\J	16g#/	.
.	.	16b/JJ	.
=18	=18	=18	=18
2c#/	(8F#\L)	16a#/LL	.
.	.	16cc#/	.
.	8G#\	16e#/	.
.	.	16g#/JJ	.
.	8A#\	16f#/LL	.
.	.	16a#/	.
.	8E#\J	16g#/	.
.	.	16b/JJ	.
*v	*v	*	*
=19	=19	=19
(8F#\L)	16a#\LL	<
.	16cc#\	.
8G#\	16b\	.
.	16dd#\JJ	.
8A#\	16cc#\LL	.
.	&(16een\&)	.
8B\J	16dd#\	.
.	&(16ff#\JJ&)	.
=20	=20	=20
8c#\L	16ff#\LL	f
.	&(16ee\&)	.
8B\	16ee\	.
.	&(16dd#\JJ&)	.
8A#\	16dd#\LL	.
.	&(16cc#\&)	.
8G#\J	16cc#\	.
.	&(16b\JJ&)	.
=21	=21	=21
8F#\L	16b/LL	.
.	&(16a#/&)	.
8En\	16a#/	.
.	&(16g#/JJ&)	>
8D#\	16g#/LL	.
.	&(16f#/&)	.
8C#\J	16f#/	.
.	&(16e/JJ&)	.
=22	=22	=22
4BB/)	24d#/LL	.
.	24e/	.
.	24f#/JJ	.
.	24B/LL	.
.	24e/	.
.	24c#/JJ	.
(8F#/L	4c#/	.
8FF#/J)	.	.
=23	=23	=23
(8BB/L	&(8.B\L&)	.
8BBB/J)	.	.
.	16ff#\Jk	f
4r	8b\L	.
.	8cc#''\J	.
=24	=24	=24
*	*^	*
4FF#/ 4F#/	(8dd#/L	8b\L	.
.	16.cc#/L	8a#\J	.
.	32ff#/JJk)	.	.
4r	8cc#''/L	8a#\L	.
.	8dd#''/J	8b\J	.
=25	=25	=25	=25
8FF#''\ 8F#''\L	(8ee/L	8cc#\L	.
8BB''\ 8B''\J	16.dd#/L)	8b\J	.
.	(32ff#/JJk	.	.
4r	8dd#''/L)	8b\L	.
.	8ee/J	8cc#\J	.
*	*v	*v	*
=26	=26	=26
4BB\ 4B\	8dd#''\ 8ff#''\L	.
.	8dd#''\ 8ff#''\ 8bb''\J	.
4BB\ 4B\	8r	.
.	8b''\ 8dd#''\ 8ff#''\	.
=27	=27	=27
8E\L	16r	.
.	(8gg#\L	.
8G#\	.	.
.	8ee\	.
8F#\	.	.
.	8dd#\	.
8A#\J	.	.
.	16cc#\Jk	.
=28	=28	=28
&(4B\&)	24dd#\LL	.
.	24cc#\	.
.	24b\J	.
.	8dd#''\ 8ff#''\ 8bb''\J)	.
4D#\ 4F#\ 4B\	8r	.
.	8b''\ 8dd#''\ 8ff#''\	.
=29	=29	=29
*^	*	*
8r	4E\	(24gg#\LL	.
.	.	24ff#\	.
.	.	24ee\JJ	.
4B/	.	24dd#^\LL	.
.	.	24cc#\	.
.	.	24b\JJ	.
.	&(4F#\&)	4cc#\	>
8A#/	.	.	.
*v	*v	*	*
=30	=30	=30
.	bq/LL	.
.	cc#q/JJ	.
8B\L	4b\)	.
8F#\J	.	.
4BB/	4r	.
=31:|!|:	=31:|!|:	=31:|!|:
*>B	*>B	*>B
4BB\ 4B\	16b\LL	p
.	16bb\	.
.	16bb''\	.
.	16bb''\JJ	.
4r	(16bb\LL	.
.	16gg#\)	.
.	(16aan\	.
.	16ff#\JJ)	.
*clefG2	*	*
=32	=32	=32
*^	*	*
16r	2B\	16gg#''\LL	.
16b''/LL	.	16gg#''\	.
16b''/	.	16gg#''\	.
16b''/JJ	.	16gg#''\JJ	.
16b/LL	.	(16gg#\LL	.
16g#/	.	16ee\	.
(16a/	.	(16ff#\)	.
16f#/JJ)	.	16dd#\JJ)	.
=33	=33	=33	=33
(8g#/L	2B\	(16ee\LL	.
.	.	(16gg#\)	.
8d#/J	.	16ff#\	.
.	.	16aa\JJ)	.
8e/L	.	(16gg#\LL	.
.	.	16bb\)	.
16f#/L	.	(16dd#\	.
16a/JJ	.	16ff#\JJ)	.
=34	=34	=34	=34
(8g#/L)	2B\	16ee\LL	<
.	.	&(16gg#\&)	.
8d#/J	.	16ff#\	.
.	.	&(16aa\JJ&)	.
8e/L	.	16gg#\LL	.
.	.	&(16bb\&)	.
16f#/L	.	16dd#\	.
16a/JJ	.	&(16ff#\JJ&)	.
=35	=35	=35	=35
(8g#/L)	2B\	16ee\LL	.
.	.	&(16gg#\&)	.
8d#/J	.	16ff#\	.
.	.	&(16aa\JJ&)	.
8e/L	.	16gg#\LL	.
.	.	16bb\	.
8g#/J	.	16gg#\	.
.	.	16ee\JJ	.
=36	=36	=36	=36
4b/)	4B\	24dd#\LL	.
.	.	24ee\	.
.	.	24ff#\J	.
.	.	&(8b''\J&)	.
4r	4r	4r	.
*v	*v	*	*
*clefF4	*	*
=37	=37	=37
4EE/ 4E/	8.e/ 8.g#/ 8.b/ 8.ee/L	f
.	(16e/Jk	p
*clefG2	*	*
8e/L	8g#/L	p
8f#/J	8a/J	.
=38	=38	=38
8.g#/L	8.b\L	.
16a/Jk	16cc#\Jk	.
&(8g#/L&)	8b/L)	.
8d#/J	(8a/J	.
=39	=39	=39
&(8e/&)	8g#/)	mf
*clefF4	*	*
8GG#'\ 8G#'\L	8B'/ 8e'/L	.
8AA'\ 8A'\	8c#'/ 8f#'/	.
8BB'\ 8F#'\J	8d#'/J	.
=40	=40	=40
4EE/ 4E/	(24e/LL	.
.	24f#/	.
.	24g#/J	.
.	8B''/J)	.
4r	32r	.
.	(32b\LLL	<
.	32cc#\	.
.	32dd#\	.
.	32ee\	.
.	32ff#\	.
.	32gg#\	.
.	32aa\JJJ	.
*clefG2	*	*
=41	=41	=41
8e/L	8bb\L)	f
8g#/	(16gg#\L	.
.	16ee\JJ	.
8B/	16aa\LL	.
.	16ff#\	.
8a/J	16ee\	.
.	16dd#\JJ	.
=42	=42	=42
8g#/L	16ee\LK)	.
.	(8bb\	.
8e/	.	.
.	8gg#\	.
8f#/	.	.
.	8aa\	.
8d#/J	.	.
.	[16ff#\Jk	.
=43	=43	=43
8e/L	16ff#\LK]	.
.	8gg#\	.
8b/	.	.
.	8ee\	.
8a/	.	.
.	8ff#\	.
8f#/J	.	.
.	[16dd#\Jk	.
=44	=44	=44
8g#/L	16dd#\LK]	.
.	8ee\	.
8e/	.	.
.	8cc#\	.
8f#/	.	.
.	8dd#\	.
8d#/J	.	.
.	16b#\Jk)	.
=45	=45	=45
&(4e/&)	(16cc#\LL	mf
.	16g#\)	.
.	16g#''\	.
.	16g#''\JJ	.
8r	16ee\LL	.
.	16g#\	.
*clefF4	*	*
8C#/	16g#''\	.
.	16g#''\JJ	.
=46	=46	=46
8BB''\L	16dd#\LL	.
.	16g#\	.
8D#''\	16g#''\	.
.	16g#''\JJ	.
8G#''\	16ff#\LL	.
.	16g#\	.
8B#''\J	16g#''\	.
.	16g#''\JJ	.
=47	=47	=47
8c#''\L	16ee\LL	.
.	16g#\	.
8C#''\J	16g#''\	.
.	16g#''\JJ	.
8r	16gg#\LL	.
.	16cc#\	.
8E\ 8e\	16cc#''\	.
.	16cc#''\JJ	.
=48	=48	=48
16F#\LL	8aa\	f
16f#\	.	.
16f#''\	8r	.
16f#''\JJ	.	.
4d#\	16b\LL	.
.	16ff#\ 16aa\	.
.	16ff#''\ 16aa''\	.
.	16ff#''\ 16aa''\JJ	.
=49	=49	=49
16E\LL	8ee\ 8gg#\	.
16e\	.	.
16e''\	8r	.
16e''\JJ	.	.
8r	(16bb\LL	.
.	16aa\	.
8E\ 8e\	(16aa\)	.
.	16gg#\JJ)	.
=50	=50	=50
8A\ (8c#\L	(16gg#\LL	.
.	16ff#\	.
8G#\ 8B\J)	(16ff#\)	.
.	16ee\JJ)	.
8r	(16bb\LL	.
.	16aa\	.
8E\ 8e\	(16aa\)	.
.	16gg#\JJ)	.
=51	=51	=51
8A\ (8c#\L	(16gg#\LL	.
.	16ff#\	.
8G#\ 8B\J)	(16ff#\)	.
.	16ee\JJ)	.
8r	(16bb\LL	.
.	16aa\)	.
8E\ 8e\	(16aa\	.
.	16gg#\JJ)	.
=52	=52	=52
4A\ 4c#\	(16ccc#\LL	.
.	16aa\)	.
.	(16aa\	.
.	16gg#\JJ)	.
8A\ 8c#\L	(16gg#\LL	.
.	16ff#\)	.
8A#\ 8c#\J	(16ccc#\	.
.	16ee\JJ	.
=53	=53	=53
(8B\L	24dd#\LL	.
.	24ee\	.
.	24ff#\J	.
8BB\J)	8b''\J)	.
4r	4r	.
=54	=54	=54
4EE/ 4E/	8.e/ 8.g#/ 8.b/ 8.ee/L	f
.	(16e/Jk	p
*clefG2	*	*
8e/L	8g#/L	p
8f#/J	8a/J	.
=55	=55	=55
8.g#/L	8.b\L	.
16a/Jk	16cc#\Jk	.
&(8g#/L&)	8b/L)	.
8d#/J	(8a/J	.
=56	=56	=56
&(8e/&)	8g#/)	.
*clefF4	*	*
8GG#'\ 8G#'\L	8B'/ 8e'/L	mf
8AA'\ 8A'\	8c#'/ 8f#'/	.
8BB'\ 8F#'\J	8d#'/J	.
=57	=57	=57
4EE/ 4E/	(24e/LL	.
.	24f#/	.
.	24g#/J	.
.	8B''/J)	.
4r	32r	.
.	(32e/LLL	<
.	32f#/	.
.	32g#/	.
.	32a/	.
.	32b/	.
.	32cc#/	.
.	32dd#/JJJ	.
=58	=58	=58
8.E\ 8.G#\ 8.B\	8.ee\L)	f
*clefG2	*	*
16e/	(16g#\Jk	p
8f#/L	8a/L	.
8g#/J	8b/J	.
=59	=59	=59
8a/L	8.cc#\L	.
8A/J	.	.
.	16ee\Jk	.
8g#/L	8b/L	.
&(8e/J&)	8g#/J)	.
*clefF4	*	*
=60	=60	=60
(8D#\L	16r	.
.	(8aa\L	mf
8B\	.	.
.	8ff#\	.
8E\	.	.
.	8gg#\	.
8B\J	.	.
.	16ee\Jk)	.
=61	=61	=61
8F#\L	16r	.
.	8dd#\L	.
8A\	.	.
.	8ff#\	.
8G#\	.	.
.	8ee\	.
8B\J	.	.
.	&(16b\Jk&)	.
=62	=62	=62
(8A\L)	16r	.
.	8cc#\L	<
8e\	.	.
.	8dd#\	.
8G#\	.	.
.	8ee\	.
8e\J	.	.
.	&(16b\Jk&)	.
=63	=63	=63
8F#\L	16r	.
.	8a/L	.
8d#\	.	.
.	8f#/	.
8e\	.	.
.	8g#/	.
8E\J)	.	.
.	&(16e/Jk&)	.
=64	=64	=64
4AA\ 4A\	16r	.
.	(16f#/LL	f
.	16e#/	.
.	16f#/JJ	.
8F#\L	24cc#/LL	.
.	24b/	.
.	24a/JJ	.
8A#\J	24g#/LL	.
.	24f#/	.
.	24en/JJ	.
=65	=65	=65
8B\L	24d#/LL	.
.	24e/	.
.	24f#/J	.
&(8BB\J&)	8B''/J)	mf
(16B\LL	4r	.
16G#\	.	.
16An\	.	.
16F#\JJ	.	.
=66	=66	=66
.	16b\LL	p
*^	*	*
4r	2G#\)	.	.
.	.	16ee\	.
.	.	16ee''\	.
.	.	16ee''\JJ	.
16r	.	16ee\LL	.
16e/LL	.	16ddn\	.
16e/	.	16cc#\	.
16e/JJ	.	&(16b\JJ&)	.
=67	=67	=67	=67
2e/	(8A\L	(16cc#\LL	.
.	.	16ee\)	.
.	8B\	16g#\	.
.	.	16b\JJ	.
.	8c#\	16a\LL	.
.	.	16cc#\	.
.	8G#\J	16b\	.
.	.	16ddn\JJ	.
=68	=68	=68	=68
2e/	8A\L	16cc#\LL	.
.	.	16ee\	<
.	8B\	16g#\	.
.	.	&(16b\JJ&)	.
.	8c#\	16a\LL	.
.	.	&(16cc#\&)	.
.	8G#\J	16b\	.
.	.	&(16ddn\JJ&)	.
=69	=69	=69	=69
4r	4A\)	16cc#\LL	mf
.	.	&(16ff#\&)	.
.	.	16ff#''\	.
.	.	16ff#''\JJ	.
16r	(4A#\	16ff#\LL	.
16f#/LL	.	16ee\	.
16f#/	.	16dd#\	.
16f#/JJ	.	&(16cc#\JJ&)	.
=70	=70	=70	=70
2f#/	8B\L	16dd#\LL	.
.	.	&(16ff#\&)	.
.	8c#\	16a#\	.
.	.	&(16cc#\JJ&)	.
.	8d#\	16b\LL	.
.	.	16dd#\	.
.	8A#\J	16cc#\	.
.	.	&(16ee\JJ&)	.
=71	=71	=71	=71
2f#/	8B\L	16dd#\LL	.
.	.	&(16ff#\&)	.
.	8c#\	16a#\	.
.	.	16cc#\JJ	<
.	8d#\	16b\LL	.
.	.	16dd#\	.
.	8A#\J	16cc#\	.
.	.	&(16ee\JJ&)	.
*v	*v	*	*
=72	=72	=72
(8B\L)	16dd#\LL	.
.	&(16ff#\&)	.
8c#\	16ee\	.
.	16gg#\JJ	.
8d#\	16ff#\LL	.
.	&(16aa\&)	.
8e\J)	16gg#\	.
.	&(16bb\JJ&)	.
=73	=73	=73
8F#\ (8f#\L	(16bb\LL	f
.	16aa\)	.
8E\ 8e\	(16aa\	.
.	16gg#\JJ)	.
8D#\ 8d#\	(16gg#\LL	.
.	16ff#\)	.
8C#\ 8c#\J	(16ff#\	.
.	16ee\JJ)	.
=74	=74	=74
8B\L	16ee\LL	.
.	&(16dd#\&)	.
8An\	16dd#\	.
.	16cc#\JJ	.
8G#\	16cc#\LL	.
.	&(16b\&)	.
8F#\J	16b\	.
.	&(16a\JJ&)	.
=75	=75	=75
4E\)	24g#/LL	>
.	24a/	.
.	24b/JJ	.
.	24e/LL	.
.	24a/	.
.	24f#/JJ	.
8B\L	4f#/	.
8BB\J	.	.
=76	=76	=76
(8E/L	&(8.e/L&)	.
8EE/J)	.	.
.	(16b/Jk	.
4r	8e/L)	f
.	8f#''/J	.
=77	=77	=77
*	*^	*
4BBB/ 4BB/	(8g#/L	8e\L	.
.	16.f#/L	8d#\J	.
.	(32b/JJk)	.	.
4r	8f#''/L	8d#\L	.
.	8g#''/J)	8e\J	.
=78	=78	=78	=78
8BBB''/ 8BB''/L	(8a/L	8f#\L	.
8EE''/ 8E''/J	16.g#/L	8e\J	.
.	(32b/JJk)	.	.
4r	8g#''/L)	8e\L	.
.	8a''/J	8f#\J	.
*	*v	*v	*
=79	=79	=79
4EE/ (4E/	8g#''\ 8b''\L	.
.	8g#''\ 8b''\ 8ee''\J	.
4GG#/ 4G#/	8r	.
.	8e''/ 8g#''/ 8b''/	.
=80	=80	=80
8AA\ 8A\)	16r	.
.	8cc#/L	.
(8c#\L	.	.
.	8a/	.
8B\	.	.
.	8g#/	.
8d#\J	.	.
.	16f#/Jk	.
=81	=81	=81
4e\)	&(8g#''\L&)	.
.	8g#''\ 8b''\ 8ee''\J	.
4G#\ (4e\	8r	.
.	8ee\ 8gg#\ 8bb\	.
=82	=82	=82
8F#\ 8d#\L	24aa\LL	.
.	24gg#\	.
.	24ff#\JJ	.
8E'\ 8e'\	24gg#\LL	.
.	24ff#\	.
.	24ee\JJ	.
8A\ 8e\	4ff#\	.
8B\ 8d#\J	.	.
=83	=83	=83
4E\ 4e\)	&(24gg#\LL&)	.
.	24ff#\	.
.	24ee\JJ	.
.	24dd#\LL	.
.	24cc#\	.
.	24b\JJ	.
8A\ (8e\L	4ff#\	.
8B\ 8d#\J	.	.
=84	=84	=84
8e\L	&(4ee\&)	.
8B\J	.	.
4E\)	4r	.
==:|!	==:|!	==:|!
*-	*-	*-
!!!ENC: Craig Stuart Sapp
!!!END: 2008/07/10/
